Papirus-nordic/22x22/apps/winefile.svg

<svg xmlns="http://www.w3.org/2000/svg" width="22" height="22" version="1">
 <rect style="fill:#82abaa" width="18" height="12" x="2" y="1" rx=".75" ry=".75"/>
 <rect style="opacity:0.1" width="18" height="12" x="2" y="2.5" rx=".75" ry=".75"/>
 <rect style="fill:#a3be8c" width="18" height="12" x="2" y="3" rx=".75" ry=".75"/>
 <rect style="opacity:0.1" width="18" height="12" x="2" y="4.5" rx=".75" ry=".75"/>
 <rect style="fill:#ebcb8b" width="18" height="12" x="2" y="5" rx=".75" ry=".75"/>
 <rect style="opacity:0.2" width="20" height="14" x="1" y="7.5" rx="1" ry="1"/>
 <rect style="fill:#718382" width="20" height="14" x="1" y="7" rx="1" ry="1"/>
 <rect style="opacity:0.2" width="6" height="2" x="8" y="12.5" rx=".5" ry=".5"/>
 <rect style="fill:#ececec" width="6" height="2" x="8" y="12" rx=".5" ry=".5"/>
 <path style="fill:#ffffff;opacity:0.1" d="M 2.75 1 C 2.3345 1 2 1.3345 2 1.75 L 2 2.25 C 2 1.8345 2.3345 1.5 2.75 1.5 L 19.25 1.5 C 19.666 1.5 20 1.8345 20 2.25 L 20 1.75 C 20 1.3345 19.666 1 19.25 1 L 2.75 1 z"/>
 <path style="opacity:0.1;fill:#ffffff" d="M 2.75,3 C 2.3345,3 2,3.3345 2,3.75 V 4.25 C 2,3.8345 2.3345,3.5 2.75,3.5 H 19.25 C 19.666,3.5 20,3.8345 20,4.25 V 3.75 C 20,3.3345 19.666,3 19.25,3 Z"/>
 <path style="opacity:0.1;fill:#ffffff" d="M 2.75,5 C 2.3345,5 2,5.3345 2,5.75 V 6.25 C 2,5.8345 2.3345,5.5 2.75,5.5 H 19.25 C 19.666,5.5 20,5.8345 20,6.25 V 5.75 C 20,5.3345 19.666,5 19.25,5 Z"/>
 <g transform="translate(-2,-2)">
  <circle style="fill:#48aeff" cx="18" cy="18" r="6"/>
  <rect style="fill:#ffffff" width="2" height="2" x="15" y="15" rx=".25" ry=".25"/>
  <rect style="fill:#ffffff" width="2" height="2" x="19" y="15" rx=".25" ry=".25"/>
  <rect style="fill:#ffffff" width="2" height="2" x="19" y="19" rx=".25" ry=".25"/>
  <rect style="fill:#ffffff" width="2" height="2" x="15" y="19" rx=".25" ry=".25"/>
 </g>
</svg>

<svg xmlns="http://www.w3.org/2000/svg" width="22" height="22" version="1"><rect width="18" height="12" x="2" y="1" rx=".75" ry=".75" fill="#82abaa"/><rect width="18" height="12" x="2" y="2.5" rx=".75" ry=".75" opacity=".1"/><rect width="18" height="12" x="2" y="3" rx=".75" ry=".75" fill="#a3be8c"/><rect width="18" height="12" x="2" y="4.5" rx=".75" ry=".75" opacity=".1"/><rect width="18" height="12" x="2" y="5" rx=".75" ry=".75" fill="#ebcb8b"/><rect width="20" height="14" x="1" y="7.5" rx="1" ry="1" opacity=".2"/><rect width="20" height="14" x="1" y="7" rx="1" ry="1" fill="#718382"/><rect width="6" height="2" x="8" y="12.5" rx=".5" ry=".5" opacity=".2"/><rect width="6" height="2" x="8" y="12" rx=".5" ry=".5" fill="#ececec"/><path d="M2.75 1a.748.748 0 0 0-.75.75v.5c0-.415.334-.75.75-.75h16.5c.416 0 .75.335.75.75v-.5a.748.748 0 0 0-.75-.75H2.75zM2.75 3a.748.748 0 0 0-.75.75v.5c0-.416.334-.75.75-.75h16.5c.416 0 .75.334.75.75v-.5a.748.748 0 0 0-.75-.75zM2.75 5a.748.748 0 0 0-.75.75v.5c0-.415.334-.75.75-.75h16.5c.416 0 .75.335.75.75v-.5a.748.748 0 0 0-.75-.75z" fill="#fff" opacity=".1"/><g transform="translate(-2 -2)"><circle cx="18" cy="18" r="6" fill="#48aeff"/><rect width="2" height="2" x="15" y="15" rx=".25" ry=".25" fill="#fff"/><rect width="2" height="2" x="19" y="15" rx=".25" ry=".25" fill="#fff"/><rect width="2" height="2" x="19" y="19" rx=".25" ry=".25" fill="#fff"/><rect width="2" height="2" x="15" y="19" rx=".25" ry=".25" fill="#fff"/></g></svg>
